src/icons/svg/Group.svg

<svg width="24" height="24" viewBox="0 0 24 24" fill="none" xmlns="http://www.w3.org/2000/svg">
<path d="M9 13.75C6.66 13.75 2 14.92 2 17.25V19H16V17.25C16 14.92 11.34 13.75 9 13.75ZM4.34 17C5.18 16.42 7.21 15.75 9 15.75C10.79 15.75 12.82 16.42 13.66 17H4.34Z" fill="#1C2125"/>
<path d="M9 12C10.93 12 12.5 10.43 12.5 8.5C12.5 6.57 10.93 5 9 5C7.07 5 5.5 6.57 5.5 8.5C5.5 10.43 7.07 12 9 12ZM9 7C9.83 7 10.5 7.67 10.5 8.5C10.5 9.33 9.83 10 9 10C8.17 10 7.5 9.33 7.5 8.5C7.5 7.67 8.17 7 9 7Z" fill="#1C2125"/>
<path d="M16.0391 13.8105C17.1991 14.6505 17.9991 15.7705 17.9991 17.2505V19.0005H21.9991V17.2505C21.9991 15.2305 18.4991 14.0805 16.0391 13.8105Z" fill="#1C2125"/>
<path d="M15 12C16.93 12 18.5 10.43 18.5 8.5C18.5 6.57 16.93 5 15 5C14.46 5 13.96 5.13 13.5 5.35C14.13 6.24 14.5 7.33 14.5 8.5C14.5 9.67 14.13 10.76 13.5 11.65C13.96 11.87 14.46 12 15 12Z" fill="#1C2125"/>
</svg>

<svg xmlns="http://www.w3.org/2000/svg" width="24" height="24" viewBox="0 0 24 24"><path fill="none" d="M0 0h24v24H0V0z"/><path d="M9 13.75c-2.34 0-7 1.17-7 3.5V19h14v-1.75c0-2.33-4.66-3.5-7-3.5zM4.34 17c.84-.58 2.87-1.25 4.66-1.25s3.82.67 4.66 1.25H4.34zM9 12c1.93 0 3.5-1.57 3.5-3.5S10.93 5 9 5 5.5 6.57 5.5 8.5 7.07 12 9 12zm0-5c.83 0 1.5.67 1.5 1.5S9.83 10 9 10s-1.5-.67-1.5-1.5S8.17 7 9 7zm7.04 6.81c1.16.84 1.96 1.96 1.96 3.44V19h4v-1.75c0-2.02-3.5-3.17-5.96-3.44zM15 12c1.93 0 3.5-1.57 3.5-3.5S16.93 5 15 5c-.54 0-1.04.13-1.5.35.63.89 1 1.98 1 3.15s-.37 2.26-1 3.15c.46.22.96.35 1.5.35z"/></svg>
